src/images/svg/vkBig.svg

<svg width="48" height="48" viewBox="0 0 48 48" fill="none" xmlns="http://www.w3.org/2000/svg">
<path d="M24 0C10.745 0 0 10.745 0 24C0 37.255 10.745 48 24 48C37.255 48 48 37.255 48 24C48 10.745 37.255 0 24 0ZM33.23 27.0775C33.23 27.0775 35.3525 29.1725 35.875 30.145C35.89 30.165 35.8975 30.185 35.9025 30.195C36.115 30.5525 36.165 30.83 36.06 31.0375C35.885 31.3825 35.285 31.5525 35.08 31.5675H31.33C31.07 31.5675 30.525 31.5 29.865 31.045C29.3575 30.69 28.8575 30.1075 28.37 29.54C27.6425 28.695 27.0125 27.965 26.3775 27.965C26.2969 27.9649 26.2167 27.9775 26.14 28.0025C25.66 28.1575 25.045 28.8425 25.045 30.6675C25.045 31.2375 24.595 31.565 24.2775 31.565H22.56C21.975 31.565 18.9275 31.36 16.2275 28.5125C12.9225 25.025 9.9475 18.03 9.9225 17.965C9.735 17.5125 10.1225 17.27 10.545 17.27H14.3325C14.8375 17.27 15.0025 17.5775 15.1175 17.85C15.2525 18.1675 15.7475 19.43 16.56 20.85C17.8775 23.165 18.685 24.105 19.3325 24.105C19.4539 24.1036 19.5732 24.0727 19.68 24.015C20.525 23.545 20.3675 20.5325 20.33 19.9075C20.33 19.79 20.3275 18.56 19.895 17.97C19.585 17.5425 19.0575 17.38 18.7375 17.32C18.867 17.1413 19.0377 16.9964 19.235 16.8975C19.815 16.6075 20.86 16.565 21.8975 16.565H22.475C23.6 16.58 23.89 16.6525 24.2975 16.755C25.1225 16.9525 25.14 17.485 25.0675 19.3075C25.045 19.825 25.0225 20.41 25.0225 21.1C25.0225 21.25 25.015 21.41 25.015 21.58C24.99 22.5075 24.96 23.56 25.615 23.9925C25.7004 24.0461 25.7992 24.0747 25.9 24.075C26.1275 24.075 26.8125 24.075 28.6675 20.8925C29.2396 19.8681 29.7367 18.8037 30.155 17.7075C30.1925 17.6425 30.3025 17.4425 30.4325 17.365C30.5284 17.3161 30.6348 17.2912 30.7425 17.2925H35.195C35.68 17.2925 36.0125 17.365 36.075 17.5525C36.185 17.85 36.055 18.7575 34.0225 21.51L33.115 22.7075C31.2725 25.1225 31.2725 25.245 33.23 27.0775Z" fill="#023047"/>
</svg>

<svg width="48" height="48" fill="none" xmlns="http://www.w3.org/2000/svg"><path d="M24 0a24 24 0 1 0 0 48 24 24 0 0 0 0-48Zm9.23 27.08s2.12 2.1 2.65 3.07l.02.05c.22.35.27.63.16.84-.18.34-.78.51-.98.53h-3.75c-.26 0-.8-.07-1.46-.52-.51-.36-1.01-.94-1.5-1.51-.73-.84-1.36-1.57-2-1.57a.76.76 0 0 0-.23.03c-.48.16-1.1.84-1.1 2.67 0 .57-.45.9-.76.9h-1.72c-.58 0-3.63-.21-6.33-3.06-3.3-3.49-6.28-10.48-6.3-10.55-.2-.45.2-.69.62-.69h3.78c.5 0 .67.3.79.58.13.32.63 1.58 1.44 3 1.32 2.31 2.13 3.25 2.77 3.25.12 0 .24-.03.35-.09.84-.46.69-3.48.65-4.1 0-.12 0-1.35-.43-1.94a1.85 1.85 0 0 0-1.16-.65c.13-.18.3-.32.5-.42.58-.3 1.62-.33 2.66-.33h.58a6.4 6.4 0 0 1 1.82.18c.82.2.84.73.77 2.56-.02.52-.05 1.1-.05 1.79v.48c-.03.93-.06 1.98.6 2.41.08.06.18.08.28.09.23 0 .91 0 2.77-3.19a24.3 24.3 0 0 0 1.48-3.18c.04-.07.15-.27.28-.35.1-.04.2-.07.31-.07h4.46c.48 0 .81.07.88.26.1.3-.02 1.2-2.06 3.96l-.9 1.2c-1.85 2.41-1.85 2.54.11 4.37Z" fill="#023047"/></svg>
